rospo-light/64x64/apps/mono.svg

<?xml version="1.0" encoding="UTF-8"?>
<svg xmlns="http://www.w3.org/2000/svg" xmlns:xlink="http://www.w3.org/1999/xlink" width="48pt" height="48pt" viewBox="0 0 48 48" version="1.1">
<defs>
<clipPath id="clip1">
  <path d="M 12 12 L 36 12 L 36 36 L 12 36 Z M 12 12 "/>
</clipPath>
<clipPath id="clip2">
  <path d="M 46.996094 23.984375 C 46.996094 36.699219 36.691406 47 24 47 C 11.308594 47 1.003906 36.699219 1.003906 23.984375 C 1.003906 11.269531 11.308594 0.96875 24 0.96875 C 36.691406 0.96875 46.996094 11.269531 46.996094 23.984375 Z M 46.996094 23.984375 "/>
</clipPath>
</defs>
<g id="surface1">
<path style=" stroke:none;fill-rule:evenodd;fill:rgb(36.862745%,40.784314%,51.764706%);fill-opacity:1;" d="M 11.207031 2.847656 L 36.792969 2.847656 C 41.40625 2.847656 45.152344 6.59375 45.152344 11.207031 L 45.152344 36.792969 C 45.152344 41.40625 41.40625 45.152344 36.792969 45.152344 L 11.207031 45.152344 C 6.59375 45.152344 2.847656 41.40625 2.847656 36.792969 L 2.847656 11.207031 C 2.847656 6.59375 6.59375 2.847656 11.207031 2.847656 Z M 11.207031 2.847656 "/>
<g clip-path="url(#clip1)" clip-rule="nonzero">
<g clip-path="url(#clip2)" clip-rule="nonzero">
<path style=" stroke:none;fill-rule:nonzero;fill:rgb(100%,100%,100%);fill-opacity:1;" d="M 14.035156 35.957031 C 14.035156 35.808594 19.042969 29.78125 19.152344 29.808594 C 19.207031 29.824219 21.453125 30.769531 24.125 31.921875 C 28.691406 33.878906 28.996094 34 29.121094 33.832031 C 29.308594 33.578125 29.949219 32.234375 30.292969 31.386719 L 30.578125 30.660156 L 30.09375 30.394531 C 29.402344 30.019531 28.390625 29.175781 27.761719 28.453125 C 27.183594 27.796875 26.140625 26.203125 26.140625 25.980469 C 26.140625 25.90625 26.46875 26.246094 26.875 26.730469 C 28.011719 28.078125 30.636719 30.207031 30.796875 29.90625 C 30.988281 29.546875 31.121094 28.488281 31.113281 27.261719 C 31.105469 25.765625 30.910156 24.597656 30.394531 22.996094 L 30.105469 22.09375 L 28.683594 21.644531 C 27.902344 21.394531 27.113281 21.15625 26.9375 21.09375 C 26.324219 20.902344 26.707031 20.910156 27.605469 21.113281 C 28.683594 21.359375 29.78125 21.558594 30.457031 21.640625 C 31.058594 21.71875 31.1875 21.597656 31.25 20.9375 C 31.332031 20.089844 30.792969 17.746094 30.234375 16.582031 C 30.015625 16.121094 29.917969 16.015625 29.472656 15.8125 C 28.003906 15.128906 23.410156 14.503906 21.464844 14.707031 C 20.621094 14.792969 19.753906 15 19.484375 15.171875 C 19.410156 15.234375 19.953125 15.363281 20.886719 15.535156 C 21.722656 15.691406 22.339844 15.828125 22.25 15.855469 C 22.144531 15.871094 20.832031 15.722656 19.308594 15.527344 C 16.636719 15.183594 16.542969 15.175781 16.34375 15.347656 C 15.953125 15.699219 15.402344 16.65625 15.28125 17.171875 C 15.171875 17.671875 15.175781 17.730469 15.425781 18.234375 C 15.847656 19.097656 16.636719 19.722656 18.421875 20.628906 C 19.265625 21.066406 19.9375 21.425781 19.910156 21.453125 C 19.886719 21.480469 19.160156 21.207031 18.3125 20.855469 L 16.753906 20.207031 L 14.46875 20.847656 C 13.214844 21.199219 12.144531 21.484375 12.09375 21.484375 C 12.03125 21.484375 12 19.96875 12 17.394531 C 12 13.457031 12.011719 13.296875 12.203125 12.894531 C 12.316406 12.644531 12.550781 12.386719 12.761719 12.261719 L 13.113281 12.035156 L 23.578125 12.003906 C 29.324219 11.988281 34.269531 12.003906 34.550781 12.035156 C 35.191406 12.113281 35.769531 12.582031 35.921875 13.152344 C 35.988281 13.394531 36.011719 17.121094 35.996094 24.207031 L 35.96875 34.878906 L 35.746094 35.238281 C 35.613281 35.449219 35.355469 35.675781 35.113281 35.796875 C 34.703125 35.996094 34.621094 36 24.375 36 C 18.699219 36 14.046875 35.964844 14.046875 35.925781 M 14.027344 35.949219 "/>
</g>
</g>
</g>
</svg>

<?xml version="1.0" encoding="UTF-8" standalone="no"?>
<svg
   xmlns:dc="http://purl.org/dc/elements/1.1/"
   xmlns:cc="http://creativecommons.org/ns#"
   xmlns:rdf="http://www.w3.org/1999/02/22-rdf-syntax-ns#"
   xmlns:svg="http://www.w3.org/2000/svg"
   xmlns="http://www.w3.org/2000/svg"
   xmlns:sodipodi="http://sodipodi.sourceforge.net/DTD/sodipodi-0.dtd"
   xmlns:inkscape="http://www.inkscape.org/namespaces/inkscape"
   height="32"
   width="32"
   version="1"
   id="svg31"
   sodipodi:docname="mono-runtime-common.svg"
   inkscape:version="0.92.1 r">
  <metadata
     id="metadata35">
    <rdf:RDF>
      <cc:Work
         rdf:about="">
        <dc:format>image/svg+xml</dc:format>
        <dc:type
           rdf:resource="http://purl.org/dc/dcmitype/StillImage" />
      </cc:Work>
    </rdf:RDF>
  </metadata>
  <sodipodi:namedview
     pagecolor="#ffffff"
     bordercolor="#666666"
     borderopacity="1"
     objecttolerance="10"
     gridtolerance="10"
     guidetolerance="10"
     inkscape:pageopacity="0"
     inkscape:pageshadow="2"
     inkscape:window-width="640"
     inkscape:window-height="480"
     id="namedview33"
     showgrid="false"
     inkscape:zoom="8.375"
     inkscape:cx="-6.6865672"
     inkscape:cy="16"
     inkscape:current-layer="svg31" />
  <defs
     id="defs7">
    <clipPath
       id="clipPath-787446318">
      <g
         transform="translate(0 -1004.4)"
         id="g4">
        <path
           transform="matrix(15.333 0 0 11.5 415 878.86)"
           fill="#1890d0"
           d="m-24 13c0 1.105-0.672 2-1.5 2s-1.5-0.895-1.5-2 0.672-2 1.5-2 1.5 0.895 1.5 2z"
           id="path2" />
      </g>
    </clipPath>
  </defs>
  <rect
     style="opacity:1;fill:#5e6884;fill-opacity:1;fill-rule:evenodd;stroke:none;stroke-width:1.03534329;stroke-linecap:round;stroke-linejoin:bevel;stroke-miterlimit:4;stroke-dasharray:none;stroke-dashoffset:0;stroke-opacity:1"
     id="rect4497-3-3"
     width="28.203388"
     height="28.203388"
     x="1.8983059"
     y="1.8983059"
     ry="5.575182" />
  <g
     transform="matrix(0.66653,0,0,0.66708,-0.00164703,0.00585519)"
     id="g29">
    <g
       clip-path="url(#clipPath-787446318)"
       id="g27">
      <g
         id="g25">
        <path
           d="m 14.04,35.926 c 0,-0.148 5.01,-6.172 5.117,-6.148 0.059,0.016 2.301,0.965 4.973,2.113 4.57,1.961 4.875,2.078 4.996,1.914 0.188,-0.254 0.832,-1.598 1.172,-2.449 l 0.289,-0.723 -0.484,-0.266 c -0.691,-0.375 -1.703,-1.215 -2.336,-1.938 -0.578,-0.66 -1.621,-2.25 -1.621,-2.473 0,-0.074 0.332,0.262 0.738,0.746 1.137,1.352 3.758,3.477 3.922,3.176 0.195,-0.359 0.324,-1.414 0.316,-2.641 -0.008,-1.496 -0.203,-2.66 -0.719,-4.266 l -0.289,-0.902 -1.422,-0.445 c -0.785,-0.25 -1.57,-0.492 -1.746,-0.551 -0.617,-0.195 -0.23,-0.184 0.668,0.02 1.078,0.242 2.176,0.441 2.852,0.527 0.602,0.074 0.73,-0.043 0.793,-0.703 0.082,-0.848 -0.461,-3.191 -1.016,-4.352 -0.219,-0.465 -0.32,-0.57 -0.762,-0.77 -1.465,-0.684 -6.06,-1.309 -8.01,-1.105 -0.844,0.086 -1.707,0.293 -1.98,0.465 -0.074,0.059 0.469,0.191 1.402,0.363 0.84,0.156 1.453,0.293 1.363,0.316 -0.102,0.016 -1.414,-0.129 -2.941,-0.324 -2.672,-0.344 -2.77,-0.352 -2.965,-0.18 -0.391,0.352 -0.945,1.309 -1.063,1.824 -0.109,0.496 -0.102,0.555 0.145,1.059 0.422,0.863 1.211,1.492 2.996,2.395 0.844,0.438 1.516,0.797 1.492,0.824 -0.027,0.023 -0.75,-0.246 -1.602,-0.602 l -1.559,-0.645 -2.285,0.641 c -1.254,0.348 -2.324,0.637 -2.375,0.637 -0.063,0 -0.094,-1.516 -0.094,-4.086 0,-3.934 0.008,-4.098 0.203,-4.5 0.117,-0.246 0.348,-0.508 0.555,-0.633 l 0.359,-0.223 10.461,-0.031 c 5.75,-0.016 10.699,0 10.977,0.031 0.641,0.078 1.219,0.547 1.371,1.113 0.066,0.246 0.09,3.969 0.074,11.05 l -0.027,10.668 -0.223,0.355 c -0.129,0.211 -0.391,0.441 -0.633,0.559 -0.41,0.199 -0.492,0.203 -10.738,0.203 -5.68,0 -10.332,-0.035 -10.332,-0.074 m -0.02,0.02"
           id="path23"
           inkscape:connector-curvature="0"
           style="fill:#ffffff" />
      </g>
    </g>
  </g>
</svg>
